!! 00047] TT[KA
!! NN
!!!OTL: Nianqing de pengyou
!!!ARE: Tibet, Rikeze(SÅdwesten)
!! Ethnic Group: Zang
!! II, 320 (2)
!!!SCT: C0238
!!!YEM: Copyright 1995, estate of Helmut Schaffrath.
**kern
*ICvox
*Ivox
*M2/4
*k[f#]
*G:
{16dd
16dd
8dd
16dd
16b
16a
16b
=1
4dd
16ee
16dd
8dd
=2
4b
16.b
32a
8a
=3
[2g
=4
2g]}
=5
{8a
8a
8dd
8ee
=6
4dd
16b
16dd
16b
16a
=7
4dd
16.b
32a
16b
16g
=8
4a
16dd
16a
8b}
=9
{8g
8a
16g
16e
8e
=10
[2d
=11
2d]}
=12
{8a
8a
8b
16b
16a
=13
4.g
16a
16b
=14
16a
16b
8dd
16ee
16dd
8dd
=15
16b
16dd
16b
16a
4b}
=16
{8dd
8dd
8a
16b
16a
=17
4g
16.g
32e
16e
16a
=18
4g
16g
16g
8r}
=19
{8.d
16e
8a
8dd
=20
4b
16.b
32a
8a
=21
[2g
=22
2g]}
==
!!!AGN: Jiuge, Trinklied; Schnapslied
!! Einige Verzierungen. Phrasierung schwierig! Phrase 2 und 3 gehoeren
!!    wahrscheinlich zusammen, aber aus Platzgruenden war Teilung notwendig.
!!    +++
!!!ONB: ESAC (Essen Associative Code) Database: CHINA_080
!!!AMT: simple duple
!!!AIN: vox
!!!EED: Helmut Schaffrath
!!!EEV: 1.0
*-
!!!ONB: Tied note syntax fixed by Craig Sapp, 2004/05/03/
